X:9964
T:Lucky in Love
M:C
L:1/8
K:G Major
gfgd BGGA|BGdG BAA2|gfgd BGAB|cAdc BGG2:|!
gfgd BGGA|BGdG BAA2|gfgd BGAB|cAdc BGGA:|!
BGdG eGdG|BGdG BAAc|BGdG eGdG|BdAc BGGA|!
BGdG eGdG|BGdG BAAB|GABd eaag|fdef gaba|]!


